public/icons/fitness_centre.svg

<?xml version="1.0" encoding="UTF-8"?>
<svg width="580" height="580" version="1.1" viewBox="0 0 580 580" xmlns="http://www.w3.org/2000/svg">
 <path d="m430.3 390.2c-6.357-2e-3 -11.63 0.738-12.62 0.886l-0.311 0.049-291.4 50.17c-25.59 4.698-44.11 26.94-44.11 52.91 0 29.65 24.13 53.78 53.78 53.78h294.6c43.5 0 78.89-35.39 78.89-78.89s-35.39-78.89-78.89-78.89zm-2e-3 30.03c26.99 0 48.86 21.88 48.86 48.86s-21.88 48.86-48.86 48.86-48.86-21.88-48.86-48.86 21.88-48.86 48.86-48.86zm-294.6 53.19c11.48 0 20.78 9.305 20.78 20.78 0 11.48-9.305 20.78-20.78 20.78s-20.78-9.305-20.78-20.78c0-11.48 9.305-20.78 20.78-20.78z"/>
 <path d="m278.9 119.8c-3.602-9.068-13.82-13.52-22.91-10.04l-43.98 17.47c-0.928 0.205-1.853 0.464-2.766 0.827-4.629 1.84-8.051 5.406-9.836 9.663-1.868 4.219-2.114 9.154-0.274 13.78 0.362 0.912 0.807 1.762 1.296 2.578l17.49 43.98c3.703 8.998 13.96 13.37 23.02 9.771s13.52-13.83 10.04-22.91l-11.96-30.12 30.11-11.97c8.997-3.701 13.37-13.96 9.77-23.02z"/>
 <path d="m355.7 312.4c-0.564-0.981-1.217-1.877-1.909-2.728l-27.29-47.29c-5.725-9.657-18.16-12.94-27.91-7.322-9.751 5.621-13.14 18.03-7.645 27.82l18.67 32.39-32.38 18.68c-9.656 5.726-12.94 18.16-7.321 27.91 5.622 9.753 18.03 13.14 27.83 7.645l47.31-27.26c1.025-0.389 2.036-0.838 3.017-1.404 4.975-2.87 8.288-7.509 9.619-12.66 1.432-5.129 0.889-10.8-1.981-15.78z"/>
 <path d="m344.2 104c23.47 0 42.5-19.03 42.5-42.5s-19.03-42.5-42.5-42.5-42.5 19.03-42.5 42.5 19.03 42.5 42.5 42.5z"/>
 <path d="m405.2 155.6c-4.604-8.222-14.96-11.19-23.21-6.695l-27.31 15.28-19.85-35.45c-1.398-6.18-5.61-11.63-11.88-14.34-10.34-4.458-22.31 0.247-26.88 10.5l-107.2 248.6c-4.492 10.42 0.309 22.5 10.73 26.99 10.42 4.49 22.5-0.309 26.99-10.73l93.54-216.9 11.6 20.74c0.313 0.862 0.68 1.713 1.142 2.541 2.353 4.199 6.204 7.022 10.51 8.189 4.278 1.251 9.034 0.856 13.23-1.493 0.826-0.463 1.583-0.998 2.302-1.569l39.88-22.34c8.145-4.689 11.03-15.07 6.425-23.29z"/>
</svg>

<svg width="580" height="580" viewBox="0 0 580 580" fill="none" xmlns="http://www.w3.org/2000/svg">
<path d="M430.254 390.18C423.897 390.178 418.627 390.918 417.635 391.066L417.324 391.115L125.951 441.283C100.364 445.981 81.8457 468.224 81.8457 494.189C81.8457 523.841 105.971 547.967 135.623 547.967H430.254C473.756 547.967 509.146 512.576 509.146 469.074C509.146 425.572 473.756 390.18 430.254 390.18V390.18ZM430.252 420.21C457.238 420.21 479.115 442.086 479.115 469.072C479.115 496.058 457.238 517.935 430.252 517.935C403.266 517.935 381.389 496.058 381.389 469.072C381.389 442.086 403.266 420.21 430.252 420.21ZM135.623 473.404C147.102 473.404 156.407 482.709 156.407 494.188C156.407 505.666 147.102 514.971 135.623 514.971C124.144 514.971 114.839 505.666 114.839 494.188C114.839 482.709 124.144 473.404 135.623 473.404Z" fill="white"/>
<path d="M278.93 119.848C275.328 110.78 265.106 106.326 256.021 109.808L212.039 127.274C211.111 127.479 210.186 127.738 209.273 128.101C204.644 129.941 201.222 133.507 199.437 137.764C197.569 141.983 197.323 146.918 199.163 151.544C199.525 152.456 199.97 153.306 200.459 154.122L217.946 198.098C221.649 207.096 231.903 211.472 240.97 207.869C250.037 204.266 254.492 194.043 251.008 184.96L239.049 154.843L269.16 142.871C278.157 139.17 282.533 128.916 278.93 119.848Z" fill="white"/>
<path d="M355.712 312.371C355.148 311.39 354.495 310.494 353.803 309.643L326.515 262.349C320.79 252.692 308.353 249.405 298.602 255.027C288.851 260.648 285.467 273.061 290.957 282.852L309.625 315.245L277.241 333.928C267.585 339.654 264.297 352.089 269.92 361.841C275.542 371.594 287.953 374.979 297.746 369.486L345.057 342.221C346.082 341.832 347.093 341.383 348.074 340.817C353.049 337.947 356.362 333.308 357.693 328.154C359.125 323.025 358.582 317.35 355.712 312.371Z" fill="white"/>
<path d="M344.207 104.043C367.681 104.043 386.711 85.0129 386.711 61.5386C386.711 38.0643 367.681 19.0347 344.207 19.0347C320.733 19.0347 301.703 38.0643 301.703 61.5386C301.703 85.0129 320.733 104.043 344.207 104.043Z" fill="white"/>
<path d="M405.188 155.609C400.584 147.387 390.23 144.42 381.974 148.914L354.662 164.197L334.814 128.751C333.416 122.571 329.204 117.118 322.939 114.416C312.604 109.958 300.63 114.663 296.061 124.917L188.837 373.509C184.345 383.925 189.146 396.008 199.563 400.5C209.978 404.99 222.062 400.191 226.554 389.773L320.098 172.835L331.701 193.573C332.014 194.435 332.381 195.286 332.843 196.114C335.196 200.313 339.047 203.136 343.35 204.303C347.628 205.554 352.384 205.159 356.578 202.81C357.404 202.347 358.161 201.812 358.88 201.241L398.763 178.898C406.908 174.209 409.793 163.832 405.188 155.609Z" fill="white"/>
</svg>
